X: 19906
T: Jig For The One Row
R: jig
M: 6/8
K: Cmajor
|:c3-cde|dcA c2A|G2c cde|g3 geg|
a3 ged|ege dcA|GAB ced|1 ecc cAB:|2 ecc c2d||
|:ecc gcc|ac'a gec|ceg ac'a|g2e d2f|
ecc gcc|ac'a gec|ceg ac'a|1 gec c2d:|2 gec cBA||
|:GAG C2E|GAB cBA|G3 E2G|AFD D3|
GAG C2E|GAB cBA|GAB ced|1 ecc cBA:|2 ecc c2d||
|:e3 dcA|GAB c2d|egg geg|afd d2f|
e3 dcA|GAB cBA|G3 g2 f|1 ecc c2d:|2 ecc cBA||

